Newaita/actions/16/dialog-xml-editor.svg

<?xml version="1.0" encoding="UTF-8"?>
<svg xmlns="http://www.w3.org/2000/svg" xmlns:xlink="http://www.w3.org/1999/xlink" width="16pt" height="16pt" viewBox="0 0 16 16" version="1.1">
<g id="surface1">
<path style=" stroke:none;fill-rule:nonzero;fill:rgb(47.058824%,56.470591%,61.176473%);fill-opacity:0.984314;" d="M 9.820312 1.035156 C 10.175781 1.128906 10.382812 1.492188 10.289062 1.84375 L 6.863281 14.625 C 6.769531 14.976562 6.40625 15.1875 6.054688 15.09375 C 5.703125 14.996094 5.492188 14.632812 5.585938 14.28125 L 9.011719 1.503906 C 9.105469 1.148438 9.46875 0.941406 9.820312 1.035156 Z M 9.820312 1.035156 "/>
<path style=" stroke:none;fill-rule:evenodd;fill:rgb(25.882354%,25.882354%,25.882354%);fill-opacity:1;" d="M 4.953125 4.265625 C 4.824219 4.269531 4.707031 4.324219 4.617188 4.414062 L 1.3125 7.722656 C 1.121094 7.910156 1.121094 8.214844 1.3125 8.40625 L 4.617188 11.714844 C 4.742188 11.839844 4.921875 11.886719 5.089844 11.84375 C 5.257812 11.800781 5.390625 11.667969 5.433594 11.5 C 5.476562 11.328125 5.429688 11.148438 5.304688 11.027344 L 2.339844 8.0625 L 5.304688 5.097656 C 5.445312 4.957031 5.492188 4.746094 5.414062 4.5625 C 5.335938 4.378906 5.152344 4.261719 4.953125 4.265625 Z M 4.953125 4.265625 "/>
<path style=" stroke:none;fill-rule:evenodd;fill:rgb(25.882354%,25.882354%,25.882354%);fill-opacity:1;" d="M 10.949219 4.265625 C 11.074219 4.269531 11.195312 4.324219 11.28125 4.414062 L 14.589844 7.722656 C 14.777344 7.910156 14.777344 8.214844 14.589844 8.40625 L 11.28125 11.714844 C 11.160156 11.839844 10.980469 11.886719 10.8125 11.84375 C 10.640625 11.800781 10.511719 11.667969 10.464844 11.5 C 10.421875 11.328125 10.472656 11.148438 10.597656 11.027344 L 13.5625 8.0625 L 10.597656 5.097656 C 10.453125 4.957031 10.410156 4.746094 10.488281 4.5625 C 10.566406 4.378906 10.75 4.261719 10.949219 4.265625 Z M 10.949219 4.265625 "/>
</g>
</svg>

<svg xmlns="http://www.w3.org/2000/svg" width="16pt" height="16pt" viewBox="0 0 16 16"><path d="M9.82 1.035a.66.66 0 0 1 .47.809L6.862 14.625a.662.662 0 0 1-.808.469.668.668 0 0 1-.47-.813L9.013 1.504a.66.66 0 0 1 .808-.469zm0 0" fill="#78909c" fill-opacity=".984"/><path d="M4.953 4.266a.494.494 0 0 0-.336.148L1.313 7.723a.479.479 0 0 0 0 .683l3.304 3.309a.494.494 0 0 0 .473.129.479.479 0 0 0 .344-.344.489.489 0 0 0-.13-.473L2.34 8.063l2.965-2.965a.488.488 0 0 0 .11-.535.49.49 0 0 0-.462-.297zm0 0M10.95 4.266a.485.485 0 0 1 .331.148l3.309 3.309a.486.486 0 0 1 0 .683l-3.309 3.309a.484.484 0 0 1-.469.129.484.484 0 0 1-.214-.817l2.964-2.964-2.964-2.965a.481.481 0 0 1-.11-.535.49.49 0 0 1 .461-.297zm0 0" fill-rule="evenodd" fill="#424242"/></svg>
